X: 632
T:??Reel, name unknown
R:Reel
C:??
M:4/4
L:1/8
N:Posted to the woodenflute mailing list March 2003
Z:Julien Coupey
K:D
~A3G FAdA|FAde f~e3|A2GE FAdf|afeg f~d3|
dfaf ~g2ab|afdf ecdB|A2GE FAdf|1 afeg fedB:|2 afeg fede||
fgaf ~d3e|fbaf ecdB|A2GE FAdf|afde f~e3|
f~a3 bfaf|dfaf ecdB|A2GE FAdf|1 afeg fdde:|2 afeg effe||
d2ad bdad|~d2ad efaf|d2ad bdad|ABde faec|
d2ad bdad|~d2ad deef|~g3e fbaf|1 ~e2de fedc:|2 ~e2de fedB||
<end>
<start>
